X: 23954
T: Lochiel's Awa' Tae France
R: reel
M: 4/4
K: Edorian
d|:BEE/E/E B2AG|FDD/D/D FAAd|BEE/E/E B2AG|FDEF dBBd:|
ABde gefg|dAA/A/A dAAB|ABde gefg|dBB/B/B dBBd|
ABde gefg|dAA/A/A ABde|fdeB ABdA|FEE/E/E dBBd||

